!!!COA:	Josquin des Prez
!!!CDT:	~1450-1521/08/27
!!!COM: Champion
!!!OTL@@LAT:Beati omnes
!!!ONB: long name: Beati omnes, qui timent dominum
!!!AGN:	Motet
!!!SCT:	NJE 15.3
!!!SCA:	New Josquin Edition 15.3
!!!voices:	6
**kern	**kern	**kern	**kern	**kern	**kern
*staff6	*staff5	*staff4	*staff3	*staff2	*staff1
*Ivox	*Ivox	*Ivox	*Ivox	*Ivox	*Ivox
*I"Bassus2	*I"Bassus1	*I"Tenor2	*I"Tenor1	*I"Altus	*I"Superius
*I'B2	*I'B	*I'T2	*I'T1	*I'A	*I'S
*clefF4	*clefF4	*clefGv2	*clefGv2	*clefGv2	*clefG2
*k[]	*k[]	*k[]	*k[]	*k[]	*k[]
*M2/1	*M2/1	*M2/1	*M2/1	*M2/1	*M2/1
*met(C|)	*met(C|)	*met(C|)	*met(C|)	*met(C|)	*met(C|)
=1-	=1-	=1-	=1-	=1-	=1-
0r	0r	0E	0r	0r	0r
=2	=2	=2	=2	=2	=2
0r	0r	1G	0r	0r	0r
.	.	1G	.	.	.
=3	=3	=3	=3	=3	=3
0AA	0r	1A	0r	0r	0r
.	.	[1E	.	.	.
=4	=4	=4	=4	=4	=4
1C	0r	1E]	0r	0r	0r
1C	.	1c	.	.	.
=5	=5	=5	=5	=5	=5
1D	0r	2B\	0r	0r	0r
.	.	2A/	.	.	.
[1AA	.	2A/	.	.	.
.	.	[2c\	.	.	.
=6	=6	=6	=6	=6	=6
1AA]	0r	4c\]	0r	0r	0r
.	.	4B\	.	.	.
.	.	4A/	.	.	.
.	.	4G/	.	.	.
1F	.	1A	.	.	.
=7	=7	=7	=7	=7	=7
2E\	0r	2G/	0r	0r	0r
1D	.	2.A/	.	.	.
.	.	4G/	.	.	.
[2F\	.	4F/	.	.	.
.	.	4E/	.	.	.
=8	=8	=8	=8	=8	=8
4F\]	0r	4D/	0r	0r	0r
4E\	.	4C/	.	.	.
4D\	.	1c	.	.	.
4C/	.	.	.	.	.
2D\	.	.	.	.	.
2D\	.	2B\	.	.	.
=9	=9	=9	=9	=9	=9
[0C	0r	[0c	0r	0r	0e
=10	=10	=10	=10	=10	=10
0C]	0r	0c]	0r	0r	1g
.	.	.	.	.	1g
=11	=11	=11	=11	=11	=11
0r	0r	0r	0r	0A	1a
.	.	.	.	.	[1e
=12	=12	=12	=12	=12	=12
0r	0r	0r	0r	1c	1e]
.	.	.	.	1c	1cc
=13	=13	=13	=13	=13	=13
0r	0r	0r	0r	1d	2b\
.	.	.	.	.	1a
.	.	.	.	[1A	.
.	.	.	.	.	[2cc\
=14	=14	=14	=14	=14	=14
0r	0r	0r	0r	1A]	4cc\]
.	.	.	.	.	4b\
.	.	.	.	.	4a/
.	.	.	.	.	4g/
.	.	.	.	1f	1a
=15	=15	=15	=15	=15	=15
0r	0r	0r	0r	2e\	2g/
.	.	.	.	1d	2.a/
.	.	.	.	.	4g/
.	.	.	.	[2f\	4f/
.	.	.	.	.	4e/
=16	=16	=16	=16	=16	=16
0r	0r	2r	0r	4f\]	4d/
.	.	.	.	4e\	4c/
.	.	2C/	.	4d\	2cc\
.	.	.	.	4c\	.
.	.	2F/	.	1d	4cc\
.	.	.	.	.	4b\
.	.	2G/	.	.	4b\
.	.	.	.	.	8a/L
.	.	.	.	.	8b/J
=17	=17	=17	=17	=17	=17
0AA	0r	1A	0c	1c	[0cc
.	.	1E	.	1e	.
=18	=18	=18	=18	=18	=18
1C	0G	1E	1c	2e\	0cc]
.	.	.	.	2e\	.
1C	.	1E	1c	1e	.
=19	=19	=19	=19	=19	=19
1.C	1G	0E	0c	2r	0r
.	.	.	.	2e\	.
.	1G	.	.	2e\	.
2C/	.	.	.	2c\	.
=20	=20	=20	=20	=20	=20
1GG	0G	0D	0B	[0d	0r
1GG	.	.	.	.	.
=21	=21	=21	=21	=21	=21
0D	0F	1r	[0A	0d]	0r
.	.	1A	.	.	.
=22	=22	=22	=22	=22	=22
0AA	[0E	1.c	0A]	1.e	1r
.	.	.	.	.	1a
.	.	2c\	.	4d\	.
.	.	.	.	4c\	.
=23	=23	=23	=23	=23	=23
1r	0E]	1c	0r	0c	1.cc
1AA	.	1c	.	.	.
.	.	.	.	.	2cc\
=24	=24	=24	=24	=24	=24
1C	0r	1G	0r	1r	1cc
2C/	.	[1c	.	1e	1cc
[2C/	.	.	.	.	.
=25	=25	=25	=25	=25	=25
2C/]	0r	1c]	0r	1g	2g/
2C/	.	.	.	.	2g/
2GG/	.	1B	.	1g	1dd
2GG/	.	.	.	.	.
=26	=26	=26	=26	=26	=26
1D	0r	0A	0r	2f\	0a
.	.	.	.	2f\	.
[1AA	.	.	.	2e\	.
.	.	.	.	2e\	.
=27	=27	=27	=27	=27	=27
1AA]	0r	2r	0r	1A	1.cc
.	.	2A/	.	.	.
1r	.	2A/	.	2.e\	.
.	.	2G/	.	.	2b\
.	.	.	.	4d\	.
=28	=28	=28	=28	=28	=28
0r	0r	2.F/	0r	1f	1a
.	.	4E/	.	.	.
.	.	2C/	.	2e\	2g/
.	.	[2D/	.	[2d\	[2f/
=29	=29	=29	=29	=29	=29
0r	0r	2D/]	0r	4d\]	4f/]
.	.	.	.	4c\	4e/
.	.	2E/	.	1c	4d/
.	.	.	.	.	4c/
.	.	2F/	.	.	1d
.	.	2G/	.	2B\	.
=30	=30	=30	=30	=30	=30
1AA	0r	1C	0r	0c	0c
[1C	.	2r	.	.	.
.	.	2E/	.	.	.
=31	=31	=31	=31	=31	=31
2C/]	0r	1.G	0r	0r	0r
2D\	.	.	.	.	.
[1E	.	.	.	.	.
.	.	2A/	.	.	.
=32	=32	=32	=32	=32	=32
1E]	0r	1.B	0r	0r	0r
1E	.	.	.	.	.
.	.	4A/	.	.	.
.	.	4G/	.	.	.
=33	=33	=33	=33	=33	=33
2E\	0r	2.G/	0r	0r	0r
2E\	.	.	.	.	.
.	.	4B\	.	.	.
2.F\	.	2A/	.	.	.
.	.	2c\	.	.	.
4E\	.	.	.	.	.
=34	=34	=34	=34	=34	=34
2D\	0r	2B\	0r	0r	0r
2C/	.	1A	.	.	.
1BB	.	.	.	.	.
.	.	2G#i/	.	.	.
=35	=35	=35	=35	=35	=35
1AA	0r	1A	0c	1r	1a
1C	.	[1E	.	1e	2g/
.	.	.	.	.	2g/
=36	=36	=36	=36	=36	=36
2C/	0G	2E/]	0c	2g\	2e/
1C	.	1E	.	2g\	2e/
.	.	.	.	2e\	2g/
4BB/	.	4D/	.	2e\	2g/
4AA/	.	4C/	.	.	.
=37	=37	=37	=37	=37	=37
0GG	0G	0D	0B	2g\	2g/
.	.	.	.	2g\	2d/
.	.	.	.	2d\	1g
.	.	.	.	2d\	.
=38	=38	=38	=38	=38	=38
0r	0F	0r	0A	1f	1c
.	.	.	.	1c	2r
.	.	.	.	.	[2cc\
=39	=39	=39	=39	=39	=39
1C	0E	0r	[0G	2r	2cc\]
.	.	.	.	1e	2cc\
1C	.	.	.	.	2cc\
.	.	.	.	2e\	2cc\
=40	=40	=40	=40	=40	=40
2GG/	[0D	1d	0G]	2g\	2b\
2GG/	.	.	.	2g\	2.dd\
1GG	.	2B\	.	1d	.
.	.	.	.	.	4cc\
.	.	[2d\	.	.	2b\
=41	=41	=41	=41	=41	=41
2D\	0D]	4d\]	0r	2d\	2a/
.	.	4c\	.	.	.
2GG/	.	2B\	.	2d\	1g
1D	.	1A	.	1d	.
.	.	.	.	.	2f#i/
=42	=42	=42	=42	=42	=42
0GG	0r	0G	0r	2B\	1g
.	.	.	.	1d	.
.	.	.	.	.	2r
.	.	.	.	2d\	[2g/
=43	=43	=43	=43	=43	=43
0r	0r	0r	0r	4e\	2g/]
.	.	.	.	4f\	.
.	.	.	.	4g\	2g/
.	.	.	.	4e\	.
.	.	.	.	2f\	2a/
.	.	.	.	2d\	2f/
=44	=44	=44	=44	=44	=44
2r	0r	2r	0r	0c	0e
1C	.	1G	.	.	.
2C/	.	2E/	.	.	.
=45	=45	=45	=45	=45	=45
2D\	0r	2F/	0r	1r	1r
2BB/	.	2G/	.	.	.
[1AA	.	[1A	.	2.c\	2r
.	.	.	.	.	[2cc\
.	.	.	.	4d\	.
=46	=46	=46	=46	=46	=46
1AA]	0r	1A]	0r	2e\	2cc\]
.	.	.	.	2f\	2cc\
1r	.	1r	.	2d\	2dd\
.	.	.	.	2e\	2b\
=47	=47	=47	=47	=47	=47
0r	0r	0r	0r	2f\	2a/
.	.	.	.	2e\	2cc\
.	.	.	.	2d\	2b\
.	.	.	.	[2f\	[2a/
=48	=48	=48	=48	=48	=48
0r	0r	0r	0r	4f\]	4a/]
.	.	.	.	4e\	4g/
.	.	.	.	1e	4f/
.	.	.	.	.	4e/
.	.	.	.	.	1f
.	.	.	.	2d\	.
=49	=49	=49	=49	=49	=49
1AA	0r	2r	0r	0e	0e
.	.	1c	.	.	.
1AA	.	.	.	.	.
.	.	2c\	.	.	.
=50	=50	=50	=50	=50	=50
2D\	0r	2d\	0r	1r	2r
2E\	.	2B\	.	.	2g/
[1F	.	1A	.	1c	2a/
.	.	.	.	.	[2cc\
=51	=51	=51	=51	=51	=51
1F]	0r	1c	0r	1A	4cc\]
.	.	.	.	.	4b\
.	.	.	.	.	2a/
1r	.	2B\	.	2B\	2g/
.	.	[2A/	.	[2c\	[2f/
=52	=52	=52	=52	=52	=52
0D	0r	4A/]	1r	2c\]	4f/]
.	.	4G/	.	.	4e/
.	.	4F/	.	4B\	1e
.	.	4E/	.	4A/	.
.	.	1F	1A	1d	.
.	.	.	.	.	2d/
=53	=53	=53	=53	=53	=53
2.C/	1r	1E	0c	1G	0e
4BB/	.	.	.	.	.
1AA	1E	1C	.	1r	.
=54	=54	=54	=54	=54	=54
0GG	0G	0r	0B	0r	1r
.	.	.	.	.	2.g/
.	.	.	.	.	4g/
=55	=55	=55	=55	=55	=55
1.D	0F	0r	0A	2.d\	2.d/
.	.	.	.	4d\	4d/
.	.	.	.	2.A/	2.f/
2D\	.	.	.	.	.
.	.	.	.	4A/	4e/
=56	=56	=56	=56	=56	=56
2.AA/	0E	2.A/	0r	2.c\	1c
4AA/	.	4A/	.	4c\	.
2.C/	.	2.E/	.	1G	2r
.	.	.	.	.	[2g/
4BB/	.	4E/	.	.	.
=57	=57	=57	=57	=57	=57
1GG	0r	2.G/	1r	0d	2g/]
.	.	.	.	.	2g/
.	.	4F/	.	.	.
1D	.	4D/	1A	.	2.f/
.	.	4E/	.	.	.
.	.	2F/	.	.	.
.	.	.	.	.	4d/
=58	=58	=58	=58	=58	=58
2.C/	1r	2r	0c	1G	2e/
.	.	2D/	.	.	2d/
4BB/	.	.	.	.	.
1AA	1E	2D/	.	1A	1a
.	.	2C/	.	.	.
=59	=59	=59	=59	=59	=59
1GG	0G	1D	0B	1B	2r
.	.	.	.	.	1dd
1GG	.	1d	.	2r	.
.	.	.	.	2d\	[2dd\
=60	=60	=60	=60	=60	=60
1D	0F	1d	[0A	1.f	2dd\]
.	.	.	.	.	4cc\
.	.	.	.	.	4b\
1D	.	1d	.	.	2.a/
.	.	.	.	2d\	.
.	.	.	.	.	4b\
=61	=61	=61	=61	=61	=61
0AA	[0E	0c	0A]	[0e	1cc
.	.	.	.	.	1cc
=62	=62	=62	=62	=62	=62
0r	0E]	1r	0r	0e]	1g
.	.	1B	.	.	1r
=63	=63	=63	=63	=63	=63
1r	0r	1B	0r	0r	1b
1E	.	1B	.	.	1b
=64	=64	=64	=64	=64	=64
1E	0r	2r	0r	1e	1b
.	.	2B\	.	.	.
1E	.	2B\	.	1e	2r
.	.	2B\	.	.	2b\
=65	=65	=65	=65	=65	=65
2r	0r	1G	0r	1e	2b\
2E\	.	.	.	.	2b\
2E\	.	1G	.	2r	1g
2E\	.	.	.	2e\	.
=66	=66	=66	=66	=66	=66
1C	0r	0c	0r	2e\	1g
.	.	.	.	2e\	.
1C	.	.	.	1c	[1cc
=67	=67	=67	=67	=67	=67
0F	0r	1A	0r	1c	1cc]
.	.	1d	.	[1f	1a
=68	=68	=68	=68	=68	=68
1D	0r	2d\	0r	1f]	1dd
.	.	2c\	.	.	.
1G	.	2B\	.	1d	2dd\
.	.	2A/	.	.	2cc\
=69	=69	=69	=69	=69	=69
2G\	0r	[0G	0r	1g	2b\
2F\	.	.	.	.	2a/
2E\	.	.	.	2g\	1g
2D\	.	.	.	2f\	.
=70	=70	=70	=70	=70	=70
[0C	0r	0G]	0c	2e\	0g
.	.	.	.	2d\	.
.	.	.	.	1c	.
=71	=71	=71	=71	=71	=71
0C_	0G	0r	1c	1r	0r
.	.	.	1c	1c	.
=72	=72	=72	=72	=72	=72
0C]	1G	0r	0c	1g	1r
.	1G	.	.	1g	1g
=73	=73	=73	=73	=73	=73
1r	0G	0r	0B	1d	1dd
1GG	.	.	.	2d\	1dd
.	.	.	.	2d\	.
=74	=74	=74	=74	=74	=74
1D	0F	1d	0A	1f	1a
1D	.	2d\	.	1f	2a/
.	.	2d\	.	.	2a/
=75	=75	=75	=75	=75	=75
1AA	0E	1e	0A	1.c	[0cc
2AA/	.	2e\	.	.	.
2AA/	.	2d\	.	2d\	.
=76	=76	=76	=76	=76	=76
2.C/	0E	2c\	0r	[0e	1cc]
.	.	2B\	.	.	.
4D\	.	.	.	.	.
[1E	.	1A	.	.	1cc
=77	=77	=77	=77	=77	=77
0E]	0r	2r	0r	0e_	0b
.	.	2.G/	.	.	.
.	.	4A/	.	.	.
.	.	4B\	.	.	.
.	.	4G/	.	.	.
=78	=78	=78	=78	=78	=78
2r	0r	4A/	0r	0e]	0r
.	.	4B\	.	.	.
1A	.	1c	.	.	.
2G\	.	2B\	.	.	.
=79	=79	=79	=79	=79	=79
2A\	0r	2c\	0r	1e	2r
2E\	.	2.B\	.	.	2g/
1F	.	.	.	1d	2a/
.	.	4A/	.	.	.
.	.	2A/	.	.	2a/
=80	=80	=80	=80	=80	=80
1E	0r	2B\	0r	0e	1g
.	.	2G/	.	.	.
2r	.	1A	.	.	1cc
2AA/	.	.	.	.	.
=81	=81	=81	=81	=81	=81
1E	0r	2G/	0r	0r	2b\
.	.	2.c\	.	.	2g/
1F	.	.	.	.	2a/
.	.	4A/	.	.	.
.	.	4c\	.	.	2a/
.	.	4d\	.	.	.
=82	=82	=82	=82	=82	=82
1C	0r	1e	0c	1g	1g
1C	.	1e	.	[1g	[1cc
=83	=83	=83	=83	=83	=83
2C/	0G	1e	0c	2g\]	2cc\]
2C/	.	.	.	2g\	2cc\
2C/	.	1e	.	1g	2cc\
2C/	.	.	.	.	2cc\
=84	=84	=84	=84	=84	=84
0GG	0G	1d	0B	1g	1dd
.	.	1r	.	2d\	1b
.	.	.	.	2d\	.
=85	=85	=85	=85	=85	=85
0r	0F	2r	0A	1f	1cc
.	.	1c	.	.	.
.	.	.	.	1f	1a
.	.	2d\	.	.	.
=86	=86	=86	=86	=86	=86
0r	0E	1e	[0G	[0g	1r
.	.	1c	.	.	2r
.	.	.	.	.	2cc\
=87	=87	=87	=87	=87	=87
1.GG	[0D	1d	0G]	1g]	4b\
.	.	.	.	.	4a/
.	.	.	.	.	2.dd\
.	.	1B	.	[1g	.
.	.	.	.	.	4cc\
2GG/	.	.	.	.	4b\
.	.	.	.	.	4a/
=88	=88	=88	=88	=88	=88
1GG	0D]	0d	0r	2g\]	2g/
.	.	.	.	2g\	1cc
1GG	.	.	.	2g\	.
.	.	.	.	2g\	2b\
=89	=89	=89	=89	=89	=89
1C	0r	1.c	0r	1.e	1cc
2AA/	.	.	.	.	1r
2D\	.	2B\	.	2d\	.
=90	=90	=90	=90	=90	=90
2C/	0r	2A/	0r	4e\	1r
.	.	.	.	4d\	.
2BB/	.	2.G/	.	4c\	.
.	.	.	.	4B\	.
!! extraneous tie remove from 1a in superius [2011/04/05/]
1AA	.	.	.	1c	1a
.	.	4F#i/	.	.	.
.	.	2F#i/	.	.	.
=91	=91	=91	=91	=91	=91
0GG	0r	1G	0r	2.B\	2b\
.	.	.	.	.	2b\
.	.	.	.	4c\	.
.	.	2r	.	4d\	1g
.	.	.	.	4G/	.
.	.	2G/	.	[2g\	.
=92	=92	=92	=92	=92	=92
1r	0r	2A/	0r	2g\]	2cc\
.	.	2A/	.	2f#i\	2cc\
1GG	.	[1G	.	1g	1b
=93	=93	=93	=93	=93	=93
0C	0r	1G]	0r	2r	2r
.	.	.	.	2e\	1g
.	.	2E/	.	2e\	.
.	.	2E/	.	2e\	2g/
=94	=94	=94	=94	=94	=94
0D	0r	2D/	1r	1A	1f
.	.	1F	.	.	.
.	.	.	1A	2f\	2d/
.	.	2F/	.	2f\	2d/
=95	=95	=95	=95	=95	=95
1C	1r	1G	0c	0e	1e
2AA/	1E	1A	.	.	1c
2AA/	.	.	.	.	.
=96	=96	=96	=96	=96	=96
0GG	0G	[0d	0B	1r	1.g
.	.	.	.	1d	.
.	.	.	.	.	2g/
=97	=97	=97	=97	=97	=97
2r	0F	0d]	0A	1f	1a
1D	.	.	.	.	.
.	.	.	.	1f	1d
2D\	.	.	.	.	.
=98	=98	=98	=98	=98	=98
1C	0E	1G	0r	1c	1e
2AA/	.	1A	.	2r	1e
2C/	.	.	.	[2A/	.
=99	=99	=99	=99	=99	=99
1BB	0r	1D	1r	2A/]	1d
.	.	.	.	2G/	.
[1AA	.	1r	1A	2.c\	2r
.	.	.	.	.	2a/
.	.	.	.	4d\	.
=100	=100	=100	=100	=100	=100
1AA]	1r	1A	0c	1e	2a/
.	.	.	.	.	2.cc\
1C	1E	1G	.	2r	.
.	.	.	.	.	4b\
.	.	.	.	[2g\	4g/
.	.	.	.	.	4a/
=101	=101	=101	=101	=101	=101
0GG	0G	[0d	0B	2g\]	2b\
.	.	.	.	2g\	1a
.	.	.	.	2d\	.
.	.	.	.	2d\	2g/
=102	=102	=102	=102	=102	=102
1D	0F	1d]	[0A	1f	[0a
1D	.	1d	.	1f	.
=103	=103	=103	=103	=103	=103
0AA	[0El	1.e	0A_	1.c	1a]
.	.	.	.	.	[1cc
.	.	2d\	.	2d\	.
=104	=104	=104	=104	=104	=104
0AA	0E_	1c	0A]	[0el	2cc\]
.	.	.	.	.	2b\
.	.	1c	.	.	1a
=105	=105	=105	=105	=105	=105
0El	0E]	0Bl	0Bl	0e]	0gl
==	==	==	==	==	==
*-	*-	*-	*-	*-	*-
!!!RDF**kern: l=long note in original notation
!!!RDF**kern: i=editorial accidental
!!!ENC:	Victoria Chang
!!!END:	2011/03/21/ [sic]
!!!SMS1: Ed. Josephson. Nicolas Champion, Collected Works, CMM 60 
!!!SMS2: (Amer Inst of Musicology 1973), pp 106-112 (after Petreius 1542)
!!!EED:	Jesse Rodin
!!!EEV:	2011/04/05/
!!attribution-level@Jos: 5 (doubtful)
!!!ONB:	Translated from MusicXML and edited on 2011/04/05/ by Craig Sapp
!!muse2ps: C^@{COM}{/}@{COA}?\n@{SCT}^I150v100,100,100,100,100,130Q16
!!onb: extraneous tie remove from 1a in Superius m. 90 [2011/04/05/]
